X:1
T:Title
L:1/8
M:2/2
K:F
V:1 treble nm="Grand Piano"
V:1
 z4[Q:1/4=100] z A,DF/A/- | AAGA/F/- F4- | FD/D/FA ddcd/B/- | B4- BG/G/AB | AAGA/F/- F4- | %5
 FEFG/F/- F^C/C/DE/E/- |[M:2/4] E4 | z A, DF/A/- |[M:4/4] AA GA/F/- F4- | FD/D/ FA dd cd/B/- | %10
 B4- BG/G/ AB | AA GA/F/- F4- | FE FG/F/- F^C/C/ DE/D/- |[M:2/4] D4 | z A AA |[M:4/4] AGFA A4- | %16
 A4- ABBB | d>c Bc A4- | A4- AGGA | B2 B2 AGFG | A>G AG/F/ EEEF | GFEA A4- | A4- AAAA | AGFA A4- | %24
 A4- ABBB | d>c Bc A4- | A4- AGGA | B2 B2 AGFG | A>G AG/F/ EEEF | GFEF D4- |[M:2/4] D4 | %31
 z A AG/A/- |[M:4/4] A4 Bc dc/c/ | B2 A2- AA AG/A/- | A4 Bcdc | c2 B2- B>B BA | B4 ^cd ec/c/ | %37
 B2 A2- AA AG/A/- | A2 A2 FEFG | F2 E6 |[M:2/4] z A AA |[M:4/4] AGFA A4- | A4- ABBB | d>c Bc A4- | %44
 A4- AGGA | B2 B2 AGFG | A>G AG/F/ EEEF | GFEF D4- |[M:6/4] D4 z2 z6 |] %49

